svg/u1f3e6.svg

<svg viewBox="0 0 128 128" xmlns="http://www.w3.org/2000/svg">
  <path d="M64.64,3.84C62.97,4.04,10.92,38.94,10.62,40c-0.3,1.07-0.42,12.19-0.42,12.19l6.71,2.13l0.03,8.84 l3.59,7.35v31.07l-2.68,5.85l-7.35,2.17v5.26l-5.76,1.75c0,0,0.08,4.51,0.08,5.26c0,0.75,0.25,2.34,3.26,2.34 s112.87-0.51,113.98-0.51s2.26-0.22,2.32-2.21s-0.06-4.8-0.06-4.8l-5.58-2.76l-0.02-4.41l-9.08-2.8l-2.19-6.2l0.03-29.21l3.48-7.34 l1.05-1.99v-7.9l5.85-2.21c0,0,0.11-11.43-0.06-11.76C117.65,39.79,66.02,3.68,64.64,3.84z" fill="#CDDFEE"/>
  <path d="M15.33,42.32c-0.31,0.77-0.39,6.45-0.11,6.73c0.28,0.28,96.94,0.13,97.27-0.14 c0.33-0.27,0.38-6.44,0.22-6.82S85.3,23.1,85.3,23.1l-42.13,0.21C43.16,23.31,15.51,41.86,15.33,42.32z" fill="#94ADBC"/>
  <path d="M4.74,116.63c-0.09-0.22,0-1.26,0-1.68s0.4-0.9,1.3-0.9s115.14-0.16,115.7-0.14 c1.41,0.05,2.36,0.35,2.5,1.25c0.14,0.9,0.09,1.55,0.09,1.55L4.74,116.63z" fill="#94ADBC"/>
  <path d="M118.73,109.53l-108.22,0.08c0,0,0.04-1.11,0.04-1.49c0-0.38,0.2-1,1.49-1s103.92-0.39,104.8-0.39 s1.84,0.41,1.96,1.02S118.73,109.53,118.73,109.53z" fill="#94ADBC"/>
  <polygon points="108.26,102.83 107.46,100.49 20.51,100.47 19.86,103.08 " fill="#94ADBC"/>
  <polygon points="19.51,68.38 108.77,68.69 107.49,71.31 20.54,71.64 " fill="#94ADBC"/>
  <path d="M17.56,64.7c0,0-0.79-0.57-0.92-1.32c-0.13-0.75,0.22-1.19,0.22-1.19l95.16-0.21 c0,0,0.36,0.74,0.05,1.26c-0.31,0.53-1.19,1.01-1.19,1.01L17.56,64.7z" fill="#94ADBC"/>
  <path d="M10.2,52.19l107.67-0.32c0,0,0.07,1.03,0,1.46c-0.06,0.43-0.62,0.81-2.05,0.81c-1.43,0-1.43,0-1.43,0 s-100.79,0.5-101.91,0.5s-1.92-0.62-2.11-1.12C10.26,53.19,10.2,52.19,10.2,52.19z" fill="#94ADBC"/>
  <polygon points="18.01,45.03 40.66,29.74 42.18,45.33 " fill="#657582"/>
  <polygon points="87.55,29.23 110.23,45.23 86.94,45.23 " fill="#657582"/>
  <polygon points="33.41,64.63 37.14,64.62 40.06,71.63 39.79,100.49 37.36,107.03 33.02,107.04 30.63,100.53 30.52,71.57 " fill="#54636E"/>
  <polygon points="53.27,64.53 49.56,71.47 49.84,100.49 52.04,106.98 76.27,106.88 78.45,100.49 78.51,71.41 75.68,64.42 " fill="#54636E"/>
  <polygon points="91.37,64.35 94.66,64.33 97.57,71.34 97.56,100.5 95.87,106.82 90.38,106.83 88.7,100.5 88.57,71.37 " fill="#54636E"/>
  <polygon points="54.62,106.97 54.62,84.72 74.14,84.91 74.18,106.91 " fill="#6BA4AE"/>
  <polygon points="63.26,83.71 63.25,106.94 65.27,106.93 65.27,84.05 " fill="#A5D0D7"/>
  <path d="M54.62,85.78V80.2h19.52v5.58C74.14,85.78,54.79,85.61,54.62,85.78z" fill="#95ACBC"/>
  <path d="M54.62,80.2h19.52c0,0,0.08-1.74-1.73-1.91s-15.11-0.03-16.23,0C54.51,78.34,54.62,80.2,54.62,80.2z" fill="#CCDEED"/>
  <path d="M64.39,11.11C49.9,11.2,38.43,22.66,38.92,37.15S52.7,61.83,64.39,61.74 c12.27-0.09,25.19-8.87,25.77-24.67C90.75,21.28,77.45,11.02,64.39,11.11z" fill="#CDDFEE"/>
  <path d="M64.48,14.58c-12.13,0.08-21.84,10.03-21.43,22.65c0.4,12.62,11.08,20.62,20.87,20.71 c11.29,0.1,21.68-7.28,22.16-21.03S75.41,14.51,64.48,14.58z" fill="#94ADBC"/>
  <path d="M60.98,21.63c0,0-0.22-3.86,0.05-4.19c0.27-0.33,1.37-0.33,3.5-0.33c2.14,0,3.01,0,3.34,0.27 s0.16,4.49,0.16,4.49s2.9,1.09,4.71,2.49c1.92,1.48,3.29,3.45,3.18,3.78c-0.11,0.33-3.94,3.67-4.49,3.56 c-0.55-0.11-3.67-3.76-7.39-4c-5.91-0.38-5.86,4.22-2.19,5.48c3.67,1.26,15.24,2.26,14.79,11.47c-0.38,7.75-8.21,8.3-8.21,8.3 s0.22,2.9,0,3.07s-7.12,0.27-7.34-0.05s-0.05-3.29-0.05-3.29s-3.07-0.6-5.59-2.3c-2.52-1.7-4.33-3.94-4.38-4.22 c-0.05-0.27,4.44-4.05,4.76-4.16s4.89,4.39,9.2,4.76c4.38,0.38,6.24-3.94,0.16-5.8c-6.08-1.86-13.25-3.45-12.92-11.06 C52.6,22.17,60.98,21.63,60.98,21.63z" fill="#024FAC"/>
</svg>

<svg viewBox="0 0 128 128" xmlns="http://www.w3.org/2000/svg">
  <defs/>
  <path d="M64.64,3.84 C62.97,4.04 10.92,38.94 10.62,40 C10.32,41.07 10.2,52.19 10.2,52.19 L16.91,54.32 L16.94,63.16 L20.53,70.51 L20.53,101.58 L17.85,107.43 L10.5,109.6 L10.5,114.86 L4.74,116.61 C4.74,116.61 4.82,121.12 4.82,121.87 C4.82,122.62 5.07,124.21 8.08,124.21 C11.09,124.21 120.95,123.7 122.06,123.7 C123.17,123.7 124.32,123.48 124.38,121.49 C124.44,119.5 124.32,116.69 124.32,116.69 L118.74,113.93 L118.72,109.52 L109.64,106.72 L107.45,100.52 L107.48,71.31 L110.96,63.97 L112.01,61.98 L112.01,54.08 L117.86,51.87 C117.86,51.87 117.97,40.44 117.8,40.11 C117.65,39.79 66.02,3.68 64.64,3.84 Z" fill="#CDDFEE"/>
  <path d="M15.33,42.32 C15.02,43.09 14.94,48.77 15.22,49.05 C15.5,49.33 112.16,49.18 112.49,48.91 C112.82,48.64 112.87,42.47 112.71,42.09 C112.55,41.71 85.3,23.1 85.3,23.1 L43.17,23.31 C43.16,23.31 15.51,41.86 15.33,42.32 Z" fill="#94ADBC"/>
  <path d="M4.74,116.63 C4.65,116.41 4.74,115.37 4.74,114.95 C4.74,114.53 5.14,114.05 6.04,114.05 C6.94,114.05 121.18,113.89 121.74,113.91 C123.15,113.96 124.1,114.26 124.24,115.16 C124.38,116.06 124.33,116.71 124.33,116.71 L4.74,116.63 Z" fill="#94ADBC"/>
  <path d="M118.73,109.53 L10.51,109.61 C10.51,109.61 10.55,108.5 10.55,108.12 C10.55,107.74 10.75,107.12 12.04,107.12 C13.33,107.12 115.96,106.73 116.84,106.73 C117.72,106.73 118.68,107.14 118.8,107.75 C118.92,108.36 118.73,109.53 118.73,109.53 Z" fill="#94ADBC"/>
  <path d="M108.26,102.83 L107.46,100.49 L20.51,100.47 L19.86,103.08 Z" fill="#94ADBC"/>
  <path d="M19.51,68.38 L108.77,68.69 L107.49,71.31 L20.54,71.64 Z" fill="#94ADBC"/>
  <path d="M17.56,64.7 C17.56,64.7 16.77,64.13 16.64,63.38 C16.51,62.63 16.86,62.19 16.86,62.19 L112.02,61.98 C112.02,61.98 112.38,62.72 112.07,63.24 C111.76,63.77 110.88,64.25 110.88,64.25 L17.56,64.7 Z" fill="#94ADBC"/>
  <path d="M10.2,52.19 L117.87,51.87 C117.87,51.87 117.94,52.9 117.87,53.33 C117.81,53.76 117.25,54.14 115.82,54.14 C114.39,54.14 114.39,54.14 114.39,54.14 C114.39,54.14 13.6,54.64 12.48,54.64 C11.36,54.64 10.56,54.02 10.37,53.52 C10.26,53.19 10.2,52.19 10.2,52.19 Z" fill="#94ADBC"/>
  <path d="M18.01,45.03 L40.66,29.74 L42.18,45.33 Z" fill="#657582"/>
  <path d="M87.55,29.23 L110.23,45.23 L86.94,45.23 Z" fill="#657582"/>
  <path d="M33.41,64.63 L37.14,64.62 L40.06,71.63 L39.79,100.49 L37.36,107.03 L33.02,107.04 L30.63,100.53 L30.52,71.57 Z" fill="#54636E"/>
  <path d="M53.27,64.53 L49.56,71.47 L49.84,100.49 L52.04,106.98 L76.27,106.88 L78.45,100.49 L78.51,71.41 L75.68,64.42 Z" fill="#54636E"/>
  <path d="M91.37,64.35 L94.66,64.33 L97.57,71.34 L97.56,100.5 L95.87,106.82 L90.38,106.83 L88.7,100.5 L88.57,71.37 Z" fill="#54636E"/>
  <path d="M54.62,106.97 L54.62,84.72 L74.14,84.91 L74.18,106.91 Z" fill="#6BA4AE"/>
  <path d="M63.26,83.71 L63.25,106.94 L65.27,106.93 L65.27,84.05 Z" fill="#A5D0D7"/>
  <path d="M54.62,85.78 L54.62,80.2 L74.14,80.2 L74.14,85.78 C74.14,85.78 54.79,85.61 54.62,85.78 Z" fill="#95ACBC"/>
  <path d="M54.62,80.2 L74.14,80.2 C74.14,80.2 74.22,78.46 72.41,78.29 C70.6,78.12 57.3,78.26 56.18,78.29 C54.51,78.34 54.62,80.2 54.62,80.2 Z" fill="#CCDEED"/>
  <path d="M64.39,11.11 C49.9,11.2 38.43,22.66 38.92,37.15 C39.41,51.64 52.7,61.83 64.39,61.74 C76.66,61.65 89.58,52.87 90.16,37.07 C90.75,21.28 77.45,11.02 64.39,11.11 Z" fill="#CDDFEE"/>
  <path d="M64.48,14.58 C52.35,14.66 42.64,24.61 43.05,37.23 C43.45,49.85 54.13,57.85 63.92,57.94 C75.21,58.04 85.6,50.66 86.08,36.91 C86.56,23.16 75.41,14.51 64.48,14.58 Z" fill="#94ADBC"/>
  <path d="M60.98,21.63 C60.98,21.63 60.76,17.77 61.03,17.44 C61.3,17.11 62.4,17.11 64.53,17.11 C66.67,17.11 67.54,17.11 67.87,17.38 C68.2,17.65 68.03,21.87 68.03,21.87 C68.03,21.87 70.93,22.96 72.74,24.36 C74.66,25.84 76.03,27.81 75.92,28.14 C75.81,28.47 71.98,31.81 71.43,31.7 C70.88,31.59 67.76,27.94 64.04,27.7 C58.13,27.32 58.18,31.92 61.85,33.18 C65.52,34.44 77.09,35.44 76.64,44.65 C76.26,52.4 68.43,52.95 68.43,52.95 C68.43,52.95 68.65,55.85 68.43,56.02 C68.21,56.19 61.31,56.29 61.09,55.97 C60.87,55.65 61.04,52.68 61.04,52.68 C61.04,52.68 57.97,52.08 55.45,50.38 C52.93,48.68 51.12,46.44 51.07,46.16 C51.02,45.89 55.51,42.11 55.83,42 C56.15,41.89 60.72,46.39 65.03,46.76 C69.41,47.14 71.27,42.82 65.19,40.96 C59.11,39.1 51.94,37.51 52.27,29.9 C52.6,22.17 60.98,21.63 60.98,21.63 Z" fill="#024FAC"/>
</svg>
